build/img/star-grey.svg

<svg width="17" height="16" viewBox="0 0 17 16" fill="none" xmlns="http://www.w3.org/2000/svg">
<path d="M8.63145 0L10.5103 5.87336L16.5906 5.87336L11.6716 9.50329L13.5505 15.3766L8.63145 11.7467L3.71242 15.3766L5.59132 9.50329L0.672291 5.87336L6.75254 5.87336L8.63145 0Z" fill="#BDBEC2" fill-opacity="0.7"/>
</svg>

<svg width="17" height="16" fill="none" xmlns="http://www.w3.org/2000/svg"><path d="M8.631 0l1.88 5.873h6.08l-4.92 3.63 1.88 5.874-4.92-3.63-4.919 3.63 1.88-5.874-4.92-3.63h6.08L8.633 0z" fill="#BDBEC2" fill-opacity=".7"/></svg>
